src/24/actions/application-menu.svg

<svg xmlns="http://www.w3.org/2000/svg" viewBox="0 0 24 24"><path d="M4 6v2h16V6H4zm0 5v2h16v-2H4zm0 5v2h16v-2H4z" fill="currentColor" color="#5d656b"/></svg>

<svg xmlns="http://www.w3.org/2000/svg" viewBox="0 0 24 24">
  <defs id="defs3051">
    <style type="text/css" id="current-color-scheme">
      .ColorScheme-Text {
        color:#5d656b;
      }
      </style>
  </defs>
 <path style="fill:currentColor;fill-opacity:1;stroke:none" 
     d="M 4 6 L 4 8 L 20 8 L 20 6 L 4 6 z M 4 11 L 4 13 L 20 13 L 20 11 L 4 11 z M 4 16 L 4 18 L 20 18 L 20 16 L 4 16 z "
     class="ColorScheme-Text"
     />
</svg>
